assets/icons/teacher.svg

<svg width="24" height="25" viewBox="0 0 24 25" fill="none" xmlns="http://www.w3.org/2000/svg">
<path d="M12.0207 1.93046C12.8393 1.93189 13.6969 2.13564 14.3769 2.5874L20.3673 6.51731L20.5803 6.6669C22.641 8.21695 22.6409 11.3277 20.5803 12.8778L20.3673 13.0274L14.3769 16.958L14.3762 16.9573C13.6962 17.404 12.839 17.606 12.0201 17.606C11.2014 17.606 10.3438 17.405 9.6639 16.9587L3.64391 13.0288C1.28724 11.4903 1.28724 8.04483 3.64391 6.50628L9.6639 2.57637C10.3438 2.13011 11.2013 1.92907 12.0207 1.93046ZM12.0187 3.34222C11.409 3.34116 10.8371 3.49441 10.4373 3.7572L10.436 3.75858L4.41596 7.6885C2.91263 8.66995 2.91263 10.8651 4.41596 11.8466L10.436 15.7765L10.4373 15.7779L10.5952 15.8709C10.9808 16.0765 11.4857 16.1942 12.0201 16.1942C12.6305 16.1942 13.2024 16.0407 13.6021 15.7779L13.6028 15.7772L19.5924 11.8473L19.7282 11.7521C21.0425 10.7638 21.0424 8.78167 19.7282 7.79328L19.5924 7.69746L13.6028 3.76754L13.5979 3.76479C13.1987 3.49872 12.6282 3.34331 12.0187 3.34222Z" fill="#111111"/>
<path d="M5.63191 13.0117C6.02161 13.0127 6.33717 13.3293 6.33641 13.719L6.32607 18.4092C6.3265 18.8689 6.50814 19.3843 6.83342 19.8362C7.1588 20.2882 7.5889 20.6227 8.02184 20.7675L11.2128 21.8277C11.3942 21.8865 11.6781 21.9269 11.9966 21.9269C12.3161 21.9269 12.6055 21.8862 12.7941 21.8256L15.9775 20.7675C16.4108 20.6229 16.8417 20.2885 17.1673 19.8362C17.4928 19.3838 17.6746 18.8678 17.6746 18.4079V13.7679C17.6746 13.3781 17.9907 13.062 18.3805 13.062C18.7702 13.0622 19.0864 13.3782 19.0864 13.7679V18.4079C19.0863 19.2177 18.7772 20.0163 18.313 20.6613C17.8487 21.3062 17.19 21.852 16.4235 22.1075L13.2263 23.1698C12.855 23.2892 12.4094 23.3387 11.9966 23.3387C11.5844 23.3387 11.1396 23.289 10.7709 23.1684L10.7675 23.1677L7.57791 22.1075C6.81137 21.852 6.15129 21.3062 5.68705 20.6613C5.22282 20.0163 4.91437 19.2176 4.91431 18.4079V18.4058L4.92465 13.7162C4.92548 13.3264 5.24206 13.0109 5.63191 13.0117Z" fill="#111111"/>
<path d="M20.6939 15.6376V9.63758C20.6939 9.24774 21.0099 8.9317 21.3998 8.9317C21.7896 8.9317 22.1057 9.24774 22.1057 9.63758V15.6376C22.1057 16.0274 21.7896 16.3435 21.3998 16.3435C21.0099 16.3435 20.6939 16.0274 20.6939 15.6376Z" fill="#111111"/>
</svg>

<svg xmlns="http://www.w3.org/2000/svg" width="24" height="25" fill="none" viewBox="0 0 24 25"><path fill="#111" d="M12.02 1.93c.82.002 1.677.206 2.357.657l5.99 3.93.213.15c2.061 1.55 2.06 4.66 0 6.21l-.213.15-5.99 3.931c-.68.446-1.538.648-2.357.648s-1.676-.201-2.356-.647l-6.02-3.93c-2.357-1.539-2.357-4.984 0-6.523l6.02-3.93c.68-.446 1.537-.647 2.357-.646m-.001 1.412c-.61 0-1.182.152-1.582.415l-.001.002-6.02 3.93a2.48 2.48 0 0 0 0 4.158l6.02 3.93h.001l.158.094c.386.205.89.323 1.425.323.61 0 1.182-.153 1.582-.416l5.99-3.93.136-.096a2.48 2.48 0 0 0 0-3.959l-.136-.096-5.99-3.93-.004-.002c-.4-.266-.97-.422-1.58-.423"/><path fill="#111" d="M5.632 13.012c.39 0 .705.317.704.707l-.01 4.69c0 .46.182.975.507 1.427.326.452.756.787 1.189.931l3.19 1.06c.182.06.466.1.785.1.32 0 .608-.04.797-.101l3.183-1.059c.434-.144.865-.479 1.19-.93.326-.453.508-.97.508-1.43v-4.64a.706.706 0 0 1 1.411 0v4.64c0 .81-.309 1.61-.773 2.254-.464.645-1.123 1.191-1.89 1.447l-3.197 1.062c-.371.12-.817.169-1.23.169-.412 0-.856-.05-1.225-.17l-.004-.001-3.19-1.06c-.766-.256-1.426-.802-1.89-1.447s-.773-1.443-.773-2.253v-.002l.01-4.69a.706.706 0 0 1 .708-.704m15.062 2.626v-6a.706.706 0 1 1 1.412 0v6a.706.706 0 0 1-1.412 0"/></svg>
